X: 12373
T: Famous Ballymote, The
R: reel
M: 4/4
K: Dmixolydian
FDAD FAAB|cABG EFGE|D2 FD FAAB|cAGE FD D2|
DD3 D3 F/A/|cABG EFGE|FDAD FAAB|cAGE FD D2||
F3A d2 ed|cABG EFGE|F3A d2 ed|cAGE FD D2|
FDAD FAdB|cABG EFGE|FD D2 d2 ed|cAGE =F4||
(3.F.G.A DA (3.F.G.A DB|cABG EFGE|(3.F.G.A DA (3.F.G.A DB|cAGE FD D2|
DD3 AD D2|cABG EFGE|(3.F.G.A DA (3.F.G.A DB|cAGE FD D2||
F3A d2 ed|cABG EFGE|F3A d2 ed|cAGE FD D2|
FDAD FAdB|cABG EFGE|FD D2 d2 ed|cAGE =F4||

